X: 71
T:Teetotaller's Reel
% Nottingham Music Database
S:Kerrs/Eric Foxley
M:4/4
L:1/4
K:G
P:A
(3D/2E/2F/2|"G"GG/2F/2 G/2A/2B/2c/2|"G"d/2B/2e/2B/2 d/2B/2A/2G/2|\
"Em"B/2E/2E/2D/2 E/2F/2G/2A/2|"Em"B/2G/2A/2F/2 "D7"G/2F/2E/2D/2|
"G"GG/2F/2 G/2A/2B/2c/2|"G"d/2B/2e/2B/2 d/2B/2A/2G/2|\
"Em"B/2E/2E/2D/2 E/2F/2G/2A/2|"D7"B/2G/2A/2F/2 "G"G:|
P:B
B|"Em"B/2e/2e/2d/2 e3/2f/2|"Em"g/2e/2a/2f/2 g/2f/2e/2d/2|\
"D"A/2d/2d/2^c/2 d3/2e/2|"D"f/2d/2a/2f/2 g/2f/2e/2d/2|
"Em""C"B/2e/2e/2d/2 e3/2f/2|"Em""C"g/2e/2a/2f/2 g/2f/2e/2d/2|\
"Em""G"B/2A/2G/2F/2 E/2F/2G/2A/2|"D7"B/2G/2A/2F/2 "G"G:|
(3G/2A/2^A/2|BB/2A/2 B/2c/2d/2e/2|g/2B/2d/2B/2 g/2B/2d/2B/2|\
g/2e/2B/2g/2 e/2B/2g/2B/2|gg f/2e/2d/2c/2|
BB/2A/2 B/2c/2d/2e/2|g/2B/2d/2B/2 g/2B/2d/2B/2|g/2e/2B/2g/2 e/2B/2g/2B/2|\
f/2e/2d/2c/2 B:|
B|e/2g/2g/2f/2 gg/2a/2|b/2g/2c'/2a/2 b/2a/2g/2f/2|d/2f/2f/2e/2 ff/2g/2|\
a/2f/2c'/2a/2 b/2a/2g/2f/2|
e/2g/2g/2f/2 g3/2a/2|b/2g/2c'/2a/2 b/2a/2g/2f/2|e/2d/2c/2B/2 A/2B/2c/2d/2|\
ed/2c/2 B:|
(3B/2c/2^c/2|dd/2c/2 d/2e/2g/2a/2|b/2d/2g/2d/2 b/2d/2g/2d/2|\
b/2g/2e/2b/2 g/2e/2b/2e/2|bb a/2g/2f/2e/2|
dd/2c/2 d/2e/2g/2a/2|b/2d/2g/2d/2 b/2d/2g/2d/2|b/2g/2e/2b/2 g/2e/2b/2e/2|\
a/2g/2f/2e/2 d:|
d|G/2B/2B/2A/2 B3/2c/2|e/2B/2f/2c/2 d/2c/2B/2A/2|F/2A/2A/2G/2 AA/2B/2|\
d/2A/2e/2A/2 c/2c/2B/2A/2|
G/2B/2B/2A/2 B3/2c/2|e/2B/2f/2c/2 d/2c/2B/2A/2|g/2f/2e/2d/2 c/2B/2A/2G/2|\
AB/2c/2 d:|
<end>
<start>
